!!!OTL: Fa, Op. 38, No. 2
!!!OPR: Deuxi&egrave;me recueil de chants
!!!ODT: 1857
!!!COM: Alkan, Charles-Valentin
!!!CDT: 1813/11/30/-1888/02/29/
!!!OPS: Op. 38
!!!ONM: No. 2
!!!ONB: Without the Fa drone
**kern	**kern	**dynam
*staff2	*staff1	*staff1/2
*clefF4	*clefF4	*clefG2
*k[]	*k[]	*k[]
*M3/8	*M3/8	*M3/8
*MM72	*MM72	*MM72
!! Allegretto (M.M. 144 = dotted quarter)
!! error in tempo? maybe 144 = eighth note
=1-	=1-	=1-
4.r	4.r	<
.	.	.
.	.	.
=2	=2	=2
4.r	4.r	.
.	.	.
.	.	.
=3	=3	=3
4.r	4.r	>
.	.	.
.	.	.
=4	=4	=4
8r	8r	.
8r	8r	.
=	=	=
8r	16ee/LL	p
.	16cc/JJ	.
=5	=5	=5
24AA\LL	8a/L	.
24e\	.	.
24c\JJ	.	.
24C\LL	8a/J	.
24e\	.	.
24c\JJ	.	.
24E\LL	16b/LL	.
24e\	.	.
.	16cc/JJ	.
24G#\ 24d\JJ	.	.
=6	=6	=6
24AA\LL	8a/L	.
24e\	.	.
24c\JJ	.	.
24C\LL	8a/J	.
24e\	.	.
24c\JJ	.	.
24E\LL	16ee/LL	.
24e\	.	.
.	16cc/JJ	.
24c\JJ	.	.
=7	=7	=7
24AA\LL	8a/L	.
24e\	.	.
24c\JJ	.	.
24C\LL	8a/J	.
24e\	.	.
24c\JJ	.	.
24E\LL	16b/LL	.
24e\	.	.
.	16cc/JJ	.
24G#\ 24d\JJ	.	.
=8	=8	=8
24AA\LL	8a/L	.
24e\	.	.
24c\JJ	.	.
24C\LL	8a/J	.
24e\	.	.
24c\JJ	.	.
24E\LL	16b/LL	.
24e\	.	.
.	16cc/JJ	.
24c\JJ	.	.
=9	=9	=9
24G#\LL	8dd/L	.
24e\	.	.
24d\JJ	.	.
24B\LL	8dd/J	.
24e\	.	.
24d\JJ	.	.
24E\LL	16cc/LL	.
24e\	.	.
.	16b/JJ	.
24d\JJ	.	.
=10	=10	=10
24A\LL	8cc/L	.
24e\	.	.
24c\JJ	.	.
24E\LL	8cc/J	.
24e\	.	.
24c\JJ	.	.
24A\LL	16b/LL	.
24e\	.	.
.	16cc/JJ	.
24c\JJ	.	.
=11	=11	=11
24F\LL	8a/L	.
24e\	.	.
24d#\JJ	.	.
24A\LL	8a/J	.
24e\	.	.
24d#\JJ	.	.
24F\LL	16a/LL	.
24e\	.	.
.	16g#/JJ	.
24d#\JJ	.	.
=12	=12	=12
24E\LL	8b/L	.
24e\	.	.
24dn\JJ	.	.
24G#\LL	8b/J	.
24e\	.	.
24d\JJ	.	.
=	=	=
24E\LL	16ee/LL	.
24e\	.	.
.	16cc/JJ	.
24d\JJ	.	.
=13	=13	=13
24AA\LL	8a/L	.
24e\	.	.
24c\JJ	.	.
24C\LL	8a/J	.
24e\	.	.
24c\JJ	.	.
24E\LL	16b/LL	.
24e\	.	.
.	16cc/JJ	.
24G#\ 24d\JJ	.	.
=14	=14	=14
24AA\LL	8a/L	.
24e\	.	.
24c\JJ	.	.
24C\LL	8a/J	.
24e\	.	.
24c\JJ	.	.
24E\LL	24dd#/LL	.
24e\	24ee/	.
24c\JJ	24cc/JJ	.
=15	=15	=15
24AA\LL	8a/L	.
24e\	.	.
24c\JJ	.	.
24C\LL	8a/J	.
24e\	.	.
24c\JJ	.	.
24E\LL	24b/LL	.
24e\	24ddn/	.
24G#\ 24d\JJ	24cc/JJ	.
=16	=16	=16
24AA\LL	8a/L	.
24e\	.	.
24c\JJ	.	.
24C\LL	8a/J	.
24e\	.	.
24c\JJ	.	.
24E\LL	16b/LL	.
24e\	.	.
.	16cc/JJ	.
24c\JJ	.	.
=17	=17	=17
24G#\LL	8dd/L	.
24e\	.	.
24d\JJ	.	.
24B\LL	8dd/J	.
24e\	.	.
24d\JJ	.	.
24E\LL	16cc/LL	.
24e\	.	.
.	16b/JJ	.
24d\JJ	.	.
=18	=18	=18
24A\LL	8cc/L	.
24e\	.	.
24c\JJ	.	.
24E\LL	8cc/J	.
24e\	.	.
24c\JJ	.	.
24A\LL	16cc/LL	.
24e\	.	.
.	16ee/JJ	.
24c\JJ	.	.
=19	=19	=19
24D\LL	8a/L	.
24e\	.	.
24d\JJ	.	.
24F\LL	8a/J	.
24e\	.	.
24d\JJ	.	.
24A\LL	16a/LL	.
24e\	.	.
.	16g#/JJ	.
24d#\JJ	.	.
=20	=20	=20
24G#\LL	8b/L	.
24e\	.	.
24dn\JJ	.	.
24B\LL	8b/J	.
24e\	.	.
24d\JJ	.	.
=	=	=
24Gn\LL	16ggn/LL	<
24e\	.	.
.	16ee/JJ	.
24B\JJ	.	.
=21	=21	=21
24C\LL	8cc/L	.
24e\	.	.
24c\JJ	.	.
24E\LL	8cc/J	.
24e\	.	.
24c\JJ	.	.
24G\LL	16dd/LL	.
24e\	.	.
.	16ee/JJ	.
24B\JJ	.	.
=22	=22	=22
24C\LL	8cc/L	.
24e\	.	.
24c\JJ	.	.
24E\LL	8cc/J	.
24e\	.	.
24c\JJ	.	.
24G\LL	24ff#/LL	.
24e\	24gg/	.
24c\JJ	24ee/JJ	.
=23	=23	=23
24C\LL	8cc/L	.
24e\	.	.
24c\JJ	.	.
24G\LL	8cc/J	.
24e\	.	.
24c\JJ	.	.
24A-\LL	16dd/LL	.
24e\	.	.
.	16ee/JJ	.
24B\JJ	.	.
=24	=24	=24
24C\LL	4cc/	.
24e\	.	.
24c\JJ	.	.
24E\LL	.	.
24e\	.	.
24c\JJ	.	.
24G\LL	16cc/LL	.
24e\	.	.
.	16ee/JJ	.
24c\JJ	.	.
=25	=25	=25
24B-\LL	8gg/L	f
24e\	.	.
24c\JJ	.	.
24B-\LL	8gg/	.
24e\	.	.
24c\JJ	.	.
24B-\LL	8gg/J	.
24e\	.	.
24c\JJ	.	.
=26	=26	=26
24B-\LL	8gg/L	>
24e\	.	.
24c\JJ	.	.
24A\LL	8cc/	.
24d\	.	.
24c\JJ	.	.
24A-\LL	8ff/J	.
24d#\	.	.
24c\JJ	.	.
=27	=27	=27
24G\LL	4ee/	.
24e\	.	.
24c\JJ	.	.
24G\LL	.	.
24e\	.	.
24c\JJ	.	.
24G\LL	16ee/LL	<
24e\	.	.
.	16dd/JJ	.
24Bn\JJ	.	.
=28	=28	=28
24B-\LL	8gg/L	f
24e\	.	.
24c\JJ	.	.
24B-\LL	8gg/	.
24e\	.	.
24c\JJ	.	.
24B-\LL	8gg/J	.
24e\	.	.
24c\JJ	.	.
=29	=29	=29
24B-\LL	8gg/L	>
24e\	.	.
24c\JJ	.	.
24A\LL	16bn/L	.
24d\	.	.
.	16cc/	.
24c\JJ	.	.
24A-\LL	16cc/	.
24d#\	.	.
.	16ff/JJ	.
24c\JJ	.	.
=30	=30	=30
24G\LL	4ee/	.
24e\	.	.
24c\JJ	.	.
24GG\LL	.	.
24e\	.	.
24c\JJ	.	.
24G\LL	16ee/LL	.
24e\	.	.
.	16dd/JJ	.
24Bn\JJ	.	.
=31	=31	=31
24C\LL	4cc/	.
24e\	.	.
24c\JJ	.	.
24E\LL	.	.
24e\	.	.
24c\JJ	.	.
24G\LL	16cc/LL	p
24e\	.	.
.	16dd/JJ	.
24c\JJ	.	.
=32	=32	=32
24G#\LL	4ee/	.
24e\	.	.
24d\JJ	.	.
24B\LL	.	.
24e\	.	.
24d\JJ	.	.
24E\LL	16b/LL	.
24e\	.	.
.	16cc/JJ	.
24d\JJ	.	.
=33	=33	=33
24A\LL	4a/	.
24e\	.	.
24c\JJ	.	.
24E\LL	.	.
24e\	.	.
24c\JJ	.	.
24A\LL	16cc/LL	.
24e\	.	.
.	16ee/JJ	.
24c\JJ	.	.
=34	=34	=34
24A#\LL	4ff/	.
24e\	.	.
24c\JJ	.	.
24E\LL	.	.
24e\	.	.
24c\JJ	.	.
24A#\LL	16cc/LL	.
24e\	.	.
.	16dd/JJ	.
24c\JJ	.	.
=35	=35	=35
24E\LL	4b/	.
24e\	.	.
24d\JJ	.	.
24B\LL	.	.
24e\	.	.
24d\JJ	.	.
24E\LL	16dd/LL	.
24e\	.	.
.	16ff/JJ	.
24d\JJ	.	.
=36	=36	=36
24B\LL	4gg#/	.
24e\	.	.
24d\JJ	.	.
24E\LL	.	.
24e\	.	.
24d\JJ	.	.
24B\LL	16dd/LL	.
24e\	.	.
.	16ff/JJ	.
24d\JJ	.	.
=37	=37	=37
24A\LL	4aa/	.
24e\	.	.
24c\JJ	.	.
24E\LL	.	.
24e\	.	.
24c\JJ	.	.
24A\LL	16cc/LL	.
24e\	.	.
.	16ee/JJ	.
24c\JJ	.	.
=38	=38	=38
24F\LL	8a/L	>
24e\	.	.
24d#\JJ	.	.
24A\LL	8.a/	.
24e\	.	.
24d#\JJ	.	.
24F\LL	.	.
24e\	.	.
.	16g#/Jk	.
24d#\JJ	.	.
=39	=39	=39
24E\LL	4b/	.
24e\	.	.
24dn\JJ	.	.
24G#\LL	.	.
24e\	.	.
24d\JJ	.	.
24E\LL	8b#/	.
24e\	.	.
24d\JJ	.	.
=40	=40	=40
24AA\LL	4cc#/	p
24e\	.	.
24c#\JJ	.	.
24C#\LL	.	.
24e\	.	.
24c#\JJ	.	.
24E\LL	8ff/	.
24e\	.	.
24c#\JJ	.	.
=41	=41	=41
24G#\LL	4ee/	.
24e\	.	.
24d\JJ	.	.
24B\LL	.	.
24e\	.	.
24d\JJ	.	.
24E\LL	8b#/	.
24e\	.	.
24d\JJ	.	.
=42	=42	=42
24AA\LL	4cc#/	.
24e\	.	.
24c#\JJ	.	.
24C#\LL	.	.
24e\	.	.
24c#\JJ	.	.
24E\LL	8ff/	.
24e\	.	.
24c#\JJ	.	.
=43	=43	=43
24G#\LL	4ee/	.
24e\	.	.
24d\JJ	.	.
24B\LL	.	.
24e\	.	.
24d\JJ	.	.
24E\LL	8b#/	.
24e\	.	.
24d\JJ	.	.
=44	=44	=44
24AA\LL	8cc#/L	.
24e\	.	.
24c#\JJ	.	.
24C#\LL	8ee/	.
24e\	.	.
24c#\JJ	.	.
24E\LL	8aa/J	.
24e\	.	.
24c#\JJ	.	.
=45	=45	=45
24D\LL	4aa/	.
24e\	.	.
24d\JJ	.	.
24F\LL	.	.
24e\	.	.
24d\JJ	.	.
24A\LL	16ff/LL	.
24e\	.	.
.	16dd/JJ	.
24d\JJ	.	.
=46	=46	=46
24BB\LL	4b/	.
24e\	.	.
24d#\JJ	.	.
24F\LL	.	.
24e\	.	.
24d#\JJ	.	.
24A\LL	24ddn/LL	.
24e\	24ccn/	.
24d#\JJ	24b/JJ	.
=47	=47	=47
24G#\LL	4b/	.
24e\	.	.
24dn\JJ	.	.
24B\LL	.	.
24e\	.	.
24d\JJ	.	.
24E\LL	8b#/	.
24e\	.	.
24d\JJ	.	.
=48	=48	=48
24AA\LL	4cc#/	.
24e\	.	.
24c#\JJ	.	.
24C#\LL	.	.
24e\	.	.
24c#\JJ	.	.
24E\LL	8ff/	.
24e\	.	.
24c#\JJ	.	.
=49	=49	=49
24G#\LL	4ee/	.
24e\	.	.
24d\JJ	.	.
24B\LL	.	.
24e\	.	.
24d\JJ	.	.
24E\LL	8b#/	.
24e\	.	.
24d\JJ	.	.
=50	=50	=50
24AA\LL	8cc#/L	.
24e\	.	.
24c#\JJ	.	.
24C#\LL	16aa/L	.
24e\	.	.
.	16gg#/	.
24c#\JJ	.	.
24E\LL	16aa/	.
24e\	.	.
.	16cc#/JJ	.
24c#\JJ	.	.
=51	=51	=51
24G#\LL	8.ee/L	.
24e\	.	.
24d\JJ	.	.
24B\LL	.	.
24e\	.	.
.	16dd#/k	.
24dn\JJ	.	.
24E\LL	8ddn/J	.
24e\	.	.
24d\JJ	.	.
=52	=52	=52
24AA\LL	8cc#/L	.
24e\	.	.
24A\JJ	.	.
24BB\LL	8dd/	.
24e\	.	.
24B\JJ	.	.
24BB#\LL	8dd#/J	.
24e\	.	.
24B#\JJ	.	.
=53	=53	=53
24C#\LL	8ee/L	.
24e\	.	.
24c#\JJ	.	.
24D\LL	8ff/	.
24e\	.	.
24d\JJ	.	.
24F\LL	8a/J	.
24e\	.	.
24d#\JJ	.	.
=54	=54	=54
24E\LL	4cc#/	.
24e\	.	.
24c#\JJ	.	.
24A\LL	.	.
24e\	.	.
24c#\JJ	.	.
24E\LL	16cc#/LL	.
24e\	.	.
.	16b/JJ	.
24G#\ 24dn\JJ	.	.
=55	=55	=55
24AA\LL	16b#/LK	.
24e\	.	.
.	8cc#/	.
24A\JJ	.	.
24BB\LL	.	.
24e\	.	.
.	8dd/	<
24B\JJ	.	.
24BB#\LL	.	.
24e\	.	.
.	[16dd#/Jk	.
24B#\JJ	.	.
=56	=56	=56
24C#\LL	16dd#/LK]	.
24e\	.	.
.	8ee/	.
24c#\JJ	.	.
24E\LL	.	.
24e\	.	.
.	8aa/	.
24c#\JJ	.	.
24A\LL	.	.
24e\	.	.
.	[16cc#/Jk	.
24c#\JJ	.	.
=57	=57	=57
24D\LL	16cc#/LK]	.
24e\	.	.
.	8ff/	.
24d\JJ	.	.
24F\LL	.	.
24e\	.	.
.	8b-/	.
24d\JJ	.	.
24B-\LL	.	.
24e\	.	.
.	16dd/Jk	.
24d\JJ	.	.
=58	=58	=58
24E\LL	16r	>
24e\	.	.
.	8cc#/L	.
24A\ 24c#\JJ	.	.
24E\LL	.	.
24e\	.	.
.	8cc#/	.
24A\ 24c#\JJ	.	.
24E\LL	.	.
24e\	.	.
.	16bn/Jk	.
24G#\ 24d\JJ	.	.
=59	=59	=59
24AA\LL	4a/	.
24e\	.	.
24c#\JJ	.	.
24C#\LL	.	.
24e\	.	.
24c#\JJ	.	.
24E\LL	16a/LL	p
24e\	.	.
.	16b-/JJ	.
24c#\JJ	.	.
=60	=60	=60
24A\LL	4ccn/	.
24e-\	.	.
24cn\JJ	.	.
24F\LL	.	.
24e-\	.	.
24c\JJ	.	.
24A\LL	16dd/LL	.
24e-\	.	.
.	16ee-/JJ	.
24c\JJ	.	.
=61	=61	=61
24BB-\LL	4ff/	.
24d\	.	.
24B-\JJ	.	.
24D\LL	.	.
24d\	.	.
24B-\JJ	.	.
24F\LL	16ee-/LL	.
24d\	.	.
.	16dd/JJ	.
24B-\JJ	.	.
=62	=62	=62
24G-\LL	4cc/	.
24e-\	.	.
24A\JJ	.	.
24F\LL	.	.
24e-\	.	.
24A\JJ	.	.
24G-\LL	16dd/LL	.
24e-\	.	.
.	16cc/JJ	.
24A\JJ	.	.
=63	=63	=63
24BB-\LL	4b-/	.
24d\	.	.
24B-\JJ	.	.
24D\LL	.	.
24d\	.	.
24B-\JJ	.	.
24F\LL	16a/LL	.
24d\	.	.
.	16b-/JJ	.
24B-\JJ	.	.
=64	=64	=64
24G-\LL	16bn/LK	.
24e-\	.	.
.	8.cc/J	.
24A\JJ	.	.
24F\LL	.	.
24e-\	.	.
24A\JJ	.	.
24G-\LL	16dd/LL	.
24e-\	.	.
.	16ee-/JJ	.
24A\JJ	.	.
=65	=65	=65
24BB-\LL	16een/LK	.
24d\	.	.
.	8.ff/J	.
24B-\JJ	.	.
24D\LL	.	.
24d\	.	.
24B-\JJ	.	.
24F\LL	16dd/LL	.
24d\	.	.
.	16cc/JJ	.
24B-\JJ	.	.
=66	=66	=66
24G-\LL	16cc/LK	.
24en\	.	.
.	8.b-/J	.
24d-\JJ	.	.
24B-\LL	.	.
24e\	.	.
24d-\JJ	.	.
24G-\LL	16a/LL	.
24e\	.	.
.	16b-/JJ	.
24d-\JJ	.	.
=67	=67	=67
24G-\LL	16bn/LK	.
24e-\	.	.
.	8.cc/J	.
24An\JJ	.	.
24F\LL	.	.
24e-\	.	.
24A\JJ	.	.
24E-\LL	16dd/LL	.
24e-\	.	.
.	16ee-/JJ	.
24A\JJ	.	.
=68	=68	=68
24A-\LL	8ff/L	.
24d\	.	.
24B-\JJ	.	.
24A-\LL	8ff/	.
24d\	.	.
24B-\JJ	.	.
24A-\LL	8ff/J	.
24d\	.	.
24B-\JJ	.	.
=69	=69	=69
24A-\LL	8ff/L	.
24d\	.	.
24B-\JJ	.	.
24G\LL	8ee-/	.
24e-\	.	.
24B-\JJ	.	.
24G-\LL	8b-/J	.
24en\	.	.
24B-\JJ	.	.
=70	=70	=70
24F\LL	4dd/	.
24gn\	.	.
24B-\JJ	.	.
24F\LL	.	.
24g\	.	.
24B-\JJ	.	.
24F\LL	16dd/LL	.
24g\	.	.
.	16cc/JJ	.
24A\ 24e-\JJ	.	.
=71	=71	=71
.	(b-q/LL	.
.	ccq/JJ	.
24BB-\LL	16b-/LL)	.
24d\	.	.
.	16a/	.
24B-\JJ	.	.
24D\LL	16b-/	.
24d\	.	.
.	16cc/	.
24B-\JJ	.	.
24F\LL	16dd/	.
24d\	.	.
.	16ee-/JJ	.
24B-\JJ	.	.
=72	=72	=72
24A-\LL	16een'/LL	.
24d\	.	.
.	16ff'/	.
24B-\JJ	.	.
24A-\LL	16ee'/	.
24d\	.	.
.	16ff'/	.
24B-\JJ	.	.
24A-\LL	16ee'/	.
24d\	.	.
.	16ff'/JJ	.
24B-\JJ	.	.
=73	=73	=73
24A-\LL	16ee/LL	.
24d\	.	.
.	16ff/	.
24B-\JJ	.	.
24G\LL	16ff/	.
24e-\	.	.
.	16b-/	.
24B-\JJ	.	.
24G-\LL	16b-/	.
24en\	.	.
.	16cc/JJ	.
24B-\JJ	.	.
=74	=74	=74
24F\LL	16cc#/LL	.
24g\	.	.
.	16dd/	.
24B-\JJ	.	.
24F\LL	16cc#/	.
24g\	.	.
.	16dd/	.
24B-\JJ	.	.
24F\LL	16ee-/	.
24g\	.	.
.	16a/JJ	.
24A\ 24e-\JJ	.	.
=75	=75	=75
24BB-\LL	4b-/	.
24d\	.	.
24B-\JJ	.	.
24D\LL	.	.
24d\	.	.
24B-\JJ	.	.
24F\LL	16b-/LL	.
24d\	.	.
.	16cc/JJ	.
24B-\JJ	.	.
=76	=76	=76
24G\LL	4dd-/	p
24e-\	.	.
24d-\JJ	.	.
24E-\LL	.	.
24e-\	.	.
24d-\JJ	.	.
24G\LL	16cc/LL	.
24e-\	.	.
.	16b-/JJ	.
24d-\JJ	.	.
=77	=77	=77
24A-\LL	4a-/	.
24e-\	.	.
24c\JJ	.	.
24E-\LL	.	.
24e-\	.	.
24c\JJ	.	.
24A-\LL	16b-/LL	.
24e-\	.	.
.	16cc/JJ	.
24c\JJ	.	.
=78	=78	=78
24G\LL	16ee-/LL	.
24e-\	.	.
.	16ddn/	.
24d-\JJ	.	.
24B-\LL	16dd-/	.
24e-\	.	.
.	16cc/	.
24d-\JJ	.	.
24E-\LL	16b-/	.
24e-\	.	.
.	16cc/JJ	.
24d-\JJ	.	.
=79	=79	=79
24A-\LL	4a-/	.
24e-\	.	.
24c\JJ	.	.
24E-\LL	.	.
24e-\	.	.
24c\JJ	.	.
24A-\LL	16cc/LL	<
24e-\	.	.
.	16ddn/JJ	.
24c\JJ	.	.
=80	=80	=80
24An\LL	4ee-/	.
24g\	.	.
24c\ 24e-\JJ	.	.
24F\LL	.	.
24g\	.	.
24c\ 24e-\JJ	.	.
24A\LL	16dd/LL	.
24g\	.	.
.	16cc/JJ	.
24c\ 24e-\JJ	.	.
=81	=81	=81
24B-\LL	4b-/	.
24g\	.	.
24d\JJ	.	.
24F\LL	.	.
24g\	.	.
24d\JJ	.	.
24B-\LL	16cc/LL	.
24g\	.	.
.	16dd/JJ	.
24d\JJ	.	.
=82	=82	=82
24A\LL	16ff/LL	.
24g\	.	.
.	16een/	.
24e-\JJ	.	.
24c\LL	16ee-/	.
24g\	.	.
.	16dd/	.
24e-\JJ	.	.
24F\LL	16cc/	.
24g\	.	.
.	16dd/JJ	.
24A\ 24e-\JJ	.	.
=83	=83	=83
24B-\LL	4b-/	.
24g\	.	.
24d\JJ	.	.
24F\LL	.	.
24g\	.	.
24d\JJ	.	.
24B-\LL	16dd/LL	.
24g\	.	.
.	16een/JJ	.
24d\JJ	.	.
=84	=84	=84
24Bn\LL	4ff/	.
24g\	.	.
24d\JJ	.	.
24G\LL	.	.
24g\	.	.
24d\JJ	.	.
24B\LL	16dd/LL	.
24g\	.	.
.	16ee/JJ	.
24d\JJ	.	.
=85	=85	=85
24c\LL	4cc/	.
24g\	.	.
24e\JJ	.	.
24G\LL	.	.
24g\	.	.
24e\JJ	.	.
24c\LL	16ee/LL	.
24g\	.	.
.	16ff/JJ	.
24e\JJ	.	.
=86	=86	=86
24c#\LL	4gg/	.
24a\	.	.
24e\JJ	.	.
24A\LL	.	.
24a\	.	.
24e\JJ	.	.
24c#\LL	16ee/LL	.
24a\	.	.
.	16ff/JJ	.
24e\JJ	.	.
=87	=87	=87
24d\LL	4dd/	<
24a\	.	.
24f\JJ	.	.
24A\LL	.	.
24a\	.	.
24f\JJ	.	.
24d\LL	16ff/LL	.
24a\	.	.
.	16gg/JJ	.
24f\JJ	.	.
=88	=88	=88
24F\LL	4aa/	f
24d#\	.	.
24c\JJ	.	.
24A\LL	.	.
24d#\	.	.
24c\JJ	.	.
24F\LL	16ee-/LL	.
24d#\	.	.
.	16ff/JJ	.
24c\JJ	.	.
=89	=89	=89
24A\LL	4gg-/	.
24d#\	.	.
24c\JJ	.	.
24F\LL	.	.
24d#\	.	.
24c\JJ	.	.
24A\LL	16bn/LL	.
24d#\	.	.
.	16cc/JJ	.
24c\JJ	.	.
=90	=90	=90
24FF\LL	8dd#/L	.
24d#\	.	.
24c\JJ	.	.
24A\LL	16a/L	.
24d#\	.	.
.	16b/J	.
24c\JJ	.	.
24F\LL	8cc/J	.
24d#\	.	.
24c\JJ	.	.
=91	=91	=91
24A\LL	16f/LL	.
24d#\	.	.
.	16g#/J	.
24c\JJ	.	.
24F\LL	8.a/	.
24d#\	.	.
24c\JJ	.	.
24A\LL	.	.
24d#\	.	.
.	16g#/Jk	.
24B\JJ	.	.
=92	=92	=92
24E\LL	4b/	>
24e\	.	.
24dn\JJ	.	.
24E\LL	.	.
24e\	.	.
24d\JJ	.	.
24E\LL	8b/	.
24e\	.	.
24d\JJ	.	.
=93	=93	=93
24E\LL	4a#/	.
24e\	.	.
24c#\JJ	.	.
24E\LL	.	.
24e\	.	.
24c#\JJ	.	.
24E\LL	8an/	.
24e\	.	.
24cn\JJ	.	.
=94	=94	=94
24E\LL	4g#/	.
24e\	.	.
24B\JJ	.	.
24E\LL	.	.
24e\	.	.
24B\JJ	.	.
24E\LL	8gn/ 8ee/	.
24e\	.	.
24B\JJ	.	.
=95	=95	=95
24E\LL	(4f#/	.
24e\	.	.
24A#\JJ	.	.
24E\LL	.	.
24e\	.	.
24A#\JJ	.	.
24E\LL	8ee/)	.
24e\	.	.
24An\JJ	.	.
=96	=96	=96
24E\LL	8f\L	<
24d\	.	.
24G#\JJ	.	.
24E\LL	8f\	.
24d\	.	.
24G#\JJ	.	.
24E\LL	8f\J	.
24d\	.	.
24G#\JJ	.	.
=97	=97	=97
24E\LL	8f\L	.
24d\	.	.
24G#\JJ	.	.
24E\LL	8f\	.
24d\	.	.
24G#\JJ	.	.
24E\LL	8f\J	.
24d\	.	.
24G#\JJ	.	.
=98	=98	=98
24E\LL	8e/ 8b/L	.
24d\	.	.
24G#\JJ	.	.
24E\LL	8e/ 8b/	.
24d\	.	.
24G#\JJ	.	.
24E\LL	8e/ 8b/J	.
24d\	.	.
24G#\JJ	.	.
=99	=99	=99
24E\LL	8e/ 8b/L	.
24d\	.	.
24G#\JJ	.	.
24E\LL	8e/ 8b/J	.
24d\	.	.
24G#\JJ	.	.
24E\LL	16e/ 16b/ 16ee/LL	ff
24d\	.	.
.	16cc/JJ	.
24G#\JJ	.	.
=100	=100	=100
24AA\LL	8a/L	.
24e\	.	.
24A\ 24c\JJ	.	.
24C\LL	8a/J	.
24e\	.	.
24A\ 24c\JJ	.	.
24E\LL	16b/LL	.
24e\	.	.
.	16cc/JJ	.
24G#\ 24d\JJ	.	.
=101	=101	=101
24AA\LL	8a/L	.
24e\	.	.
24A\ 24c\JJ	.	.
24C\LL	8a/J	.
24e\	.	.
24A\ 24c\JJ	.	.
24E\LL	32dd#/LLL	.
.	32aa/	.
24e\	.	.
.	32cc/	.
24A\ 24c\JJ	.	.
.	32ee/JJJ	.
=102	=102	=102
24AA\LL	8a/L	.
24e\	.	.
24A\ 24c\JJ	.	.
24C\LL	8a/J	.
24e\	.	.
24A\ 24c\JJ	.	.
24E\LL	32a#/LLL	.
.	32dd/	.
24e\	.	.
.	32b/	.
24G#\ 24d\JJ	.	.
.	32cc/JJJ	.
=103	=103	=103
24AA\LL	8an/L	.
24e\	.	.
24A\ 24c\JJ	.	.
24C\LL	8a/J	.
24e\	.	.
24A\ 24c\JJ	.	.
24E\LL	16b/LL	.
24e\	.	.
.	16cc/JJ	mf
24A\ 24c\JJ	.	.
=104	=104	=104
24G#\LL	8dd/L	.
24e\	.	.
24d\JJ	.	.
24B\LL	8dd/J	.
24e\	.	.
24d\JJ	.	.
24E\LL	16cc/LL	.
24e\	.	.
.	16b/JJ	.
24d\JJ	.	.
=105	=105	=105
24A\LL	8cc/L	.
24e\	.	.
24c\JJ	.	.
24E\LL	8cc/J	.
24e\	.	.
24c\JJ	.	.
24A\LL	16b/LL	.
24e\	.	.
.	16cc/JJ	.
24c\JJ	.	.
=106	=106	=106
24G#\LL	8dd/L	.
24e\	.	.
24d\JJ	.	.
24B\LL	8dd/J	.
24e\	.	.
24d\JJ	.	.
24E\LL	16cc/LL	.
24e\	.	.
.	16b/JJ	.
24d\JJ	.	.
=107	=107	=107
24A\LL	8ee/L	.
24e\	.	.
24c\JJ	.	.
24E\LL	8ee/J	.
24e\	.	.
24c\JJ	.	.
24A\LL	16dd/LL	.
24e\	.	.
.	16cc/JJ	.
24c\JJ	.	.
=108	=108	=108
24B\LL	8ff/L	.
24e\	.	.
24d\JJ	.	.
24E\LL	8ff/J	.
24e\	.	.
24d\JJ	.	.
24B\LL	16ee/LL	.
24e\	.	.
.	16dd/JJ	.
24d\JJ	.	.
=109	=109	=109
24B-\LL	8gg/L	f
24e\	.	.
24c#\JJ	.	.
24B-\LL	8gg/	.
24e\	.	.
24c#\JJ	.	.
24B-\LL	8gg/J	.
24e\	.	.
24c#\JJ	.	.
=110	=110	=110
24B-\LL	8gg/L	.
24e\	.	.
24c#\JJ	.	.
24A\LL	8ff/	.
24e\	.	.
24d\JJ	.	.
24F\LL	8a/J	.
24e\	.	.
24d#\JJ	.	.
=111	=111	=111
24E\LL	4cc/	.
24e\	.	.
24A\ 24c\JJ	.	.
24E\LL	.	.
24e\	.	.
24A\ 24c\JJ	.	.
24E\LL	16cc/LL	.
24e\	.	.
.	16b/JJ	.
24G#\ 24dn\JJ	.	.
=112	=112	=112
24B-\LL	8gg/L	.
24e\	.	.
24c#\JJ	.	.
24B-\LL	8gg/	.
24e\	.	.
24c#\JJ	.	.
24B-\LL	8gg/J	.
24e\	.	.
24c#\JJ	.	.
=113	=113	=113
24B-\LL	16gg/LL	.
24e\	.	.
.	16ff#/	.
24c#\JJ	.	.
24A\LL	16ffn/	.
24e\	.	.
.	16dd/	.
24d\JJ	.	.
24F\LL	16a/	.
24e\	.	.
.	16b/JJ	.
24A\ 24d#\JJ	.	.
=114	=114	=114
24E\LL	8cc/L	.
24e\	.	.
24A\ 24c\JJ	.	.
24E\LL	8cc/J	.
24e\	.	.
24A\ 24c\JJ	.	.
24E\LL	16cc/LL	.
24e\	.	.
.	16b/JJ	.
24G#\ 24dn\JJ	.	.
=115	=115	=115
24AA\LL	4a/	.
24e\	.	.
24A\ 24c\JJ	.	.
24C\LL	.	.
24e\	.	.
24c\JJ	.	.
24E\LL	16ee/LL	.
24e\	.	.
.	16cc/JJ	.
24c\JJ	.	.
=116	=116	=116
24G#\LL	4b/	.
24e\	.	.
24d\JJ	.	.
24B\LL	.	.
24e\	.	.
24d\JJ	.	.
24E\LL	16ee/LL	.
24e\	.	.
.	16cc/JJ	.
24d\JJ	.	.
=117	=117	=117
24AA\LL	4a/	.
24e\	.	.
24c\JJ	.	.
24C\LL	.	.
24e\	.	.
24c\JJ	.	.
24E\LL	16ee/LL	.
24e\	.	.
.	16cc/JJ	.
24c\JJ	.	.
=118	=118	=118
24G#\LL	4b/	.
24e\	.	.
24d\JJ	.	.
24B\LL	.	.
24e\	.	.
24d\JJ	.	.
24E\LL	16ee/LL	.
24e\	.	.
.	16cc/JJ	.
24d\JJ	.	.
=119	=119	=119
24AA\LL	4a/	.
24e\	.	.
24c\JJ	.	.
24C\LL	.	.
24e\	.	.
24c\JJ	.	.
24E\LL	16ee/LL	.
24e\	.	.
.	16cc/JJ	.
24c\JJ	.	.
=120	=120	=120
24C#\LL	8aa/L	p
24e\	.	.
24G\ 24A\JJ	.	.
24C#\LL	8aa/	.
24e\	.	.
24G\ 24A\JJ	.	.
24C#\LL	8aa/J	.
24e\	.	.
24G\ 24A\JJ	.	.
=121	=121	=121
24C#\LL	8aa/L	.
24e\	.	.
24G\ 24A\JJ	.	.
24D\LL	8ff/	.
24e\	.	.
24F\ 24A\JJ	.	.
24F\LL	8a/J	.
24e\	.	.
24A\ 24d\JJ	.	.
=122	=122	=122
24F\LL	4cc/	.
24e\	.	.
24A\ 24d#\JJ	.	.
24E\LL	.	.
24e\	.	.
24A\JJ	.	.
24Dn\LL	16cc/LL	.
24e\	.	.
.	16b/JJ	.
24G#\JJ	.	.
=123	=123	=123
24C#\LL	8aa/L	.
24e\	.	.
24Gn\ 24A\JJ	.	.
24C#\LL	8aa/	.
24e\	.	.
24G\ 24A\JJ	.	.
24C#\LL	8aa/J	.
24e\	.	.
24G\ 24A\JJ	.	.
=124	=124	=124
24C#\LL	16aa/LL	.
24e\	.	.
.	16gg#/	.
24G\ 24A\JJ	.	.
24D\LL	16ggn/	.
24e\	.	.
.	16ff#/	.
24F\ 24A\JJ	.	.
24F\LL	16ffn/	.
24e\	.	.
.	16a/JJ	.
24A\ 24d\JJ	.	.
=125	=125	=125
24F\LL	24cc/LL	.
24e\	24b-/	.
24B-\ 24d\JJ	24dd/JJ	.
24E-\LL	40cc#/LLL	.
.	40ee-/	.
24e-\	.	.
.	40dd/	.
.	40een/	.
24A\ 24cn\JJ	.	.
.	40dd#/JJJ	.
24En\LL	32ff/LLL	.
.	32g#/	.
24en\	.	.
.	32ddn/	.
24G#\ 24d\JJ	.	.
.	32ccn/JJJ	.
=126	=126	=126
24AA\LL	4a/	>
24e\	.	.
24A\JJ	.	.
24E\LL	.	.
24e\	.	.
24A\JJ	.	.
24AA\LL	(8ee/	.
24e\	.	.
24A\JJ	.	.
=127	=127	=127
24E\LL	4dd#/	.
24e\	.	.
24G\JJ	.	.
24AA\LL	.	.
24e\	.	.
24G\JJ	.	.
24E\LL	8ddn/	.
24e\	.	.
24G\JJ	.	.
=128	=128	=128
24AA\LL	4cc#/)	.
24e\	.	.
24A\JJ	.	.
24E\LL	.	.
24e\	.	.
24A\JJ	.	.
24AA\LL	(8ee/	.
24e\	.	.
24A\JJ	.	.
=129	=129	=129
24E\LL	4dd#/	.
24e\	.	.
24G#\JJ	.	.
24AA\LL	.	.
24e\	.	.
24G#\JJ	.	.
24E\LL	8ddn/	.
24e\	.	.
24G#\JJ	.	.
=130	=130	=130
24AA\LL	4cc#/)	.
24e\	.	.
24A\JJ	.	.
24E\LL	.	.
24e\	.	.
24A\JJ	.	.
24AA\LL	(8ee/	.
24e\	.	.
24A\JJ	.	.
=131	=131	=131
24E\LL	4dd#/	.
24e\	.	.
24G#\JJ	.	.
24AA\LL	.	.
24e\	.	.
24G#\JJ	.	.
24E\LL	8ddn/	.
24e\	.	.
24G#\JJ	.	.
=132	=132	=132
24AA\LL	[4.aa/)	.
24e\	.	.
24c#\JJ	.	.
24D\LL	.	.
24e\	.	.
24c#\JJ	.	.
24C#\LL	.	.
24e\	.	.
24c#\JJ	.	.
=133	=133	=133
*^	*	*
24F\LL	8F/	4.aa/_	.
24e\	.	.	.
24c#\JJ	.	.	.
24E\LL	8E/	.	.
24e\	.	.	.
24c#\JJ	.	.	.
24A\LL	8A/	.	.
24e\	.	.	.
24c#\JJ	.	.	.
=134	=134	=134	=134
24G\LL	8G/	4aa/]	.
24d\	.	.	.
24A\JJ	.	.	.
24E\LL	8E/	.	.
24d\	.	.	.
24A\JJ	.	.	.
24F\LL	8F/	8r	.
24d\	.	.	.
24A\JJ	.	.	.
*v	*v	*	*
=135	=135	=135
24C#\LL	4.r	.
24d\	.	.
24A\JJ	.	.
24D\LL	.	.
24d\	.	.
24A\JJ	.	.
24GG#\LL	.	.
24d\	.	.
24A\JJ	.	.
=136	=136	=136
24AA\LL	4.r	.
24c#\	.	.
24E\JJ	.	.
8r	.	.
8r	.	.
=137	=137	=137
4.r	4.r	.
=138	=138	=138
24AA\	4.r	pp
24c#/LL	.	.
24E/JJ	.	.
8r	.	.
8r	.	.
=139	=139	=139
4.r	4.r	.
=140	=140	=140
24AAA\ 24AA\	4.r	ppp
24c#/LL	.	.
24E/JJ	.	.
8r	.	.
8r	.	.
=141	=141	=141
4.r;	4.r;	.
==	==	==
*-	*-	*-
!!!ENC: Craig Stuart Sapp
!!!END: 2008/06/19/
